app/images/icons/gym-member-icon.svg

<?xml version="1.0" encoding="UTF-8" standalone="no"?>
<svg width="76px" height="76px" viewBox="0 0 76 76" version="1.1" xmlns="http://www.w3.org/2000/svg" xmlns:xlink="http://www.w3.org/1999/xlink" xmlns:sketch="http://www.bohemiancoding.com/sketch/ns">
    <!-- Generator: Sketch 3.1 (8751) - http://www.bohemiancoding.com/sketch -->
    <title>gym-member-icon</title>
    <desc>Created with Sketch.</desc>
    <defs></defs>
    <g id="Page-1" stroke="none" stroke-width="1" fill="none" fill-rule="evenodd" sketch:type="MSPage">
        <g id="gym-member-icon" sketch:type="MSLayerGroup" fill="#1B1A19">
            <path d="M29.1333333,29.4708478 C29.1333333,29.3302478 29.1485333,29.2428478 29.1422,29.2289144 C29.3790667,29.1288478 30.1251333,29.1288478 30.628,29.1288478 L31.0599333,29.1402478 L31.4944,29.1288478 C32.0200667,29.1288478 32.813,29.1288478 32.9548667,29.1782478 C32.9561333,29.1782478 32.9890667,29.2542478 32.9890667,29.4708478 C32.9890667,30.1675144 33.5565333,30.7362478 34.2557333,30.7362478 C34.9549333,30.7362478 35.5224,30.1675144 35.5224,29.4708478 C35.5224,28.6095144 35.2703333,27.9255144 34.7712667,27.4302478 C33.9226,26.5815811 32.6762,26.5815811 31.4741333,26.6069144 L30.647,26.6069144 C29.4436667,26.5942478 28.1998,26.5815811 27.3511333,27.4302478 C26.8520667,27.9255144 26.6,28.6095144 26.6,29.4708478 C26.6,30.1675144 27.1674667,30.7362478 27.8666667,30.7362478 C28.5658667,30.7362478 29.1333333,30.1675144 29.1333333,29.4708478" id="Fill-1740" sketch:type="MSShapeGroup"></path>
            <path d="M41.8,30.7324055 C42.4992,30.7324055 43.0666667,30.1636721 43.0666667,29.4670055 C43.0666667,29.3264055 43.0818667,29.2390055 43.0755333,29.2250721 C43.3111333,29.1250055 44.0572,29.1250055 44.5613333,29.1250055 L44.9945333,29.1364055 L45.4277333,29.1250055 C45.9508667,29.1250055 46.7463333,29.1250055 46.8882,29.1744055 C46.8894667,29.1744055 46.9224,29.2504055 46.9224,29.4670055 C46.9224,30.1636721 47.4886,30.7324055 48.1890667,30.7324055 C48.8882667,30.7324055 49.4557333,30.1636721 49.4557333,29.4670055 C49.4557333,28.6056721 49.2036667,27.9216721 48.7046,27.4264055 C47.8546667,26.5777388 46.607,26.5904055 45.4074667,26.6030721 L44.5803333,26.6030721 C43.3757333,26.5904055 42.1331333,26.5777388 41.2844667,27.4264055 C40.7854,27.9216721 40.5333333,28.6056721 40.5333333,29.4670055 C40.5333333,30.1636721 41.0995333,30.7324055 41.8,30.7324055" id="Fill-1741" sketch:type="MSShapeGroup"></path>
            <path d="M73.4666667,73.4666667 L65.6741333,73.4666667 L62.2782,53.0214 C69.3652,54.6693333 73.4666667,57.418 73.4666667,64.334 L73.4666667,73.4666667 L73.4666667,73.4666667 Z M2.53333333,64.334 C2.53333333,57.5814 6.62086667,54.7694 13.7294,53.0720667 L10.3271333,73.4666667 L2.53333333,73.4666667 L2.53333333,64.334 L2.53333333,64.334 Z M38,53.6420667 C40.0824,53.6420667 43.3238,52.5147333 46.4372667,50.4880667 C48.1624667,50.7794 49.8762667,51.0200667 51.5647333,51.2607333 L46.9806667,61.5346667 C45.7507333,64.2440667 42.8678,65.8666667 39.2666667,65.8666667 L35.4666667,65.8666667 C32.2835333,65.8666667 30.4164667,64.6114 29.0244,61.5460667 L24.4428667,51.2607333 C26.1389333,51.0200667 27.8603333,50.7794 29.5741333,50.502 C32.6838,52.5147333 35.9201333,53.6420667 38,53.6420667 L38,53.6420667 Z M23.2952667,36.4027333 C23.2952667,35.7060667 22.7290667,35.1360667 22.0286,35.1360667 C20.1881333,35.1360667 19.7017333,32.8307333 19.7017333,31.6033333 C19.7017333,30.3860667 20.1881333,28.0807333 22.0286,28.0807333 C22.6315333,28.0807333 23.1521333,27.6627333 23.2712,27.0674 L24.6734,20.0880667 C32.7116667,19.9867333 36.1658667,18.6820667 38.0152,17.3140667 C39.9025333,18.734 43.3086,19.9867333 51.3456,20.0880667 L52.7288,27.0674 C52.8466,27.6500667 53.3672,28.0807333 53.9714,28.0807333 C55.8118667,28.0807333 56.2982667,30.3860667 56.2982667,31.6033333 C56.2982667,32.8307333 55.8118667,35.1360667 53.9714,35.1360667 C53.2722,35.1360667 52.7047333,35.7060667 52.7047333,36.4027333 C52.7047333,41.4694 49.2619333,45.5480667 45.5265333,48.1194 C45.5012,48.1320667 45.4758667,48.1586667 45.4518,48.1700667 C42.6955333,50.0447333 39.7936,51.11 38,51.11 C36.2368,51.11 33.3994667,50.084 30.6837333,48.26 C30.5862,48.1700667 30.4785333,48.0940667 30.3569333,48.0434 C26.6658667,45.4720667 23.2952667,41.42 23.2952667,36.4027333 L23.2952667,36.4027333 Z M21.1951333,5.11606667 L22.2806667,3.30473333 L24.9178667,5.9394 C25.8324,6.86406667 27.094,7.334 28.3885333,7.24406667 C29.6767333,7.144 30.8623333,6.49673333 31.6413333,5.47073333 L33.2094667,3.36933333 L34.4318,5.00333333 C35.2690667,6.118 36.6028667,6.78806667 38,6.78806667 C39.3971333,6.78806667 40.7322,6.118 41.5682,5.00333333 L42.7905333,3.36933333 L44.3586667,5.47073333 C45.1364,6.49673333 46.322,7.144 47.6114667,7.24406667 C48.8946,7.334 50.1676,6.86406667 51.0834,5.9394 L53.7193333,3.30473333 L54.8048667,5.11606667 C56.6808,8.24473333 57.5459333,11.818 57.3090667,15.4774 C56.9607333,20.7974 56.601,24.1920667 56.335,26.2567333 C55.9423333,26.0034 55.518,25.7880667 55.0354,25.6740667 L53.6294,18.5807333 C53.5116,17.9980667 52.991,17.5674 52.3868,17.5674 C42.8412,17.5674 40.1267333,15.96 38.9145333,14.744 C38.4395333,14.2614 37.5984667,14.2614 37.1234667,14.744 C35.9112667,15.96 33.1955333,17.5674 23.6347333,17.5674 C23.0318,17.5674 22.5124667,17.9854 22.3934,18.5807333 L20.9671333,25.6740667 C20.5073333,25.7880667 20.0817333,25.9780667 19.6852667,26.2314 C19.4091333,24.1920667 19.0405333,20.7974 18.6922,15.4774 C18.4540667,11.818 19.3204667,8.24473333 21.1951333,5.11606667 L21.1951333,5.11606667 Z M21.8322667,51.6166667 L26.714,62.586 C28.5152,66.5506667 31.2955333,68.4 35.4666667,68.4 L39.2666667,68.4 C43.89,68.4 47.6355333,66.2200667 49.2910667,62.586 L54.1766,51.6166667 C56.1146,51.8940667 57.9373333,52.1613333 59.6182,52.478 L63.1066,73.4666667 L12.8959333,73.4666667 L16.3932,52.4894 C18.0740667,52.1727333 19.8917333,51.8940667 21.8322667,51.6166667 L21.8322667,51.6166667 Z M61.0622,50.16 C61.0216667,50.1460667 60.9798667,50.1346667 60.9368,50.1346667 C58.4402,49.6394 55.7928667,49.2720667 53.1037333,48.9047333 C51.8358,48.7400667 50.54,48.5627333 49.2404,48.3613333 C52.3310667,45.6367333 54.8327333,41.9380667 55.1924667,37.5047333 C57.5864667,36.8346667 58.8316,34.2114 58.8316,31.6033333 C58.8316,30.7926667 58.6922667,29.9693333 58.4465333,29.2080667 C58.6390667,28.2200667 59.2521333,24.5720667 59.8373333,15.6420667 C60.1071333,11.476 59.1191333,7.38466667 56.9772,3.8114 L55.0569333,0.606733333 C54.8568,0.2774 54.5122667,0.0506666667 54.1259333,0.0114 C53.7408667,-0.0392666667 53.3507333,0.0874 53.0758667,0.366066667 L49.2923333,4.1534 C48.8958667,4.54606667 48.3410667,4.75 47.7913333,4.71073333 C47.234,4.67273333 46.721,4.39406667 46.3853333,3.952 L43.8051333,0.5054 C43.5657333,0.188733333 43.1908,0 42.7918,0 C42.3928,0 42.0178667,0.188733333 41.7784667,0.5054 L39.5402667,3.48206667 C38.8182667,4.45866667 37.1842667,4.45866667 36.4597333,3.48206667 L34.2215333,0.5054 C33.9821333,0.188733333 33.6072,0 33.2082,0 C32.8092,0 32.4342667,0.188733333 32.1948667,0.5054 L29.6159333,3.93806667 C29.279,4.39406667 28.766,4.67273333 28.2086667,4.71073333 C27.6412,4.75 27.1041333,4.54606667 26.7089333,4.1534 L22.9241333,0.366066667 C22.6492667,0.0874 22.2616667,-0.0392666667 21.8740667,0.0114 C21.4877333,0.0506666667 21.1432,0.2774 20.9430667,0.606733333 L19.0228,3.8114 C16.8808667,7.38466667 15.8928667,11.476 16.1639333,15.6420667 C16.7263333,24.244 17.3508,27.9540667 17.5775333,29.1067333 C17.3204,29.8794 17.1684,30.7280667 17.1684,31.6033333 C17.1684,34.2114 18.4135333,36.8346667 20.8075333,37.5047333 C21.1672667,41.952 23.6727333,45.6367333 26.7659333,48.3727333 C25.5562667,48.5500667 24.3491333,48.7147333 23.1622667,48.8794 C20.4364,49.2467333 17.6940667,49.628 15.0910667,50.1460667 C15.0429333,50.1460667 14.9973333,50.16 14.9517333,50.1714 C6.73993333,51.8307333 0,55.0113333 0,64.334 L0,76 L76,76 L76,64.334 C76,54.8846667 69.4374,51.8054 61.0622,50.16 L61.0622,50.16 Z" id="Fill-1742" sketch:type="MSShapeGroup"></path>
        </g>
    </g>
</svg>

<svg width="76" height="76" viewBox="0 0 76 76" xmlns="http://www.w3.org/2000/svg">
    <desc>
        Created with Sketch.
    </desc>
    <g fill="#1B1A19">
        <path d="M29.133 29.47c0-.14.016-.227.01-.24.236-.1.982-.1 1.485-.1l.432.01.434-.01c.526 0 1.32 0 1.46.048.002 0 .035.076.035.293 0 .698.567 1.266 1.266 1.266.7 0 1.266-.568 1.266-1.265 0-.86-.252-1.544-.75-2.04-.85-.848-2.096-.848-3.298-.823h-.827c-1.203-.013-2.447-.025-3.296.823-.498.496-.75 1.18-.75 2.04 0 .698.567 1.266 1.267 1.266s1.266-.568 1.266-1.265"/>
        <path d="M41.8 30.732c.7 0 1.267-.568 1.267-1.265 0-.14.015-.228.01-.242.234-.1.98-.1 1.484-.1l.435.01.433-.01c.523 0 1.318 0 1.46.05 0 0 .034.075.034.292 0 .697.567 1.265 1.267 1.265.698 0 1.266-.568 1.266-1.265 0-.86-.252-1.545-.75-2.04-.85-.85-2.1-.837-3.3-.824h-.826c-1.204-.013-2.447-.025-3.296.823-.5.496-.75 1.18-.75 2.04 0 .698.566 1.266 1.266 1.266"/>
        <path d="M73.467 73.467h-7.793L62.278 53.02c7.087 1.65 11.19 4.398 11.19 11.314v9.133zM2.533 64.334c0-6.753 4.088-9.565 11.196-11.262l-3.403 20.395H2.533v-9.133zM38 53.642c2.082 0 5.324-1.127 8.437-3.154 1.725.29 3.44.532 5.128.773L46.98 61.536c-1.23 2.71-4.112 4.332-7.713 4.332h-3.8c-3.183 0-5.05-1.256-6.443-4.32l-4.58-10.286c1.695-.24 3.416-.48 5.13-.758 3.11 2.013 6.346 3.14 8.426 3.14zm-14.705-17.24c0-.696-.566-1.266-1.266-1.266-1.842 0-2.328-2.305-2.328-3.533 0-1.217.486-3.522 2.327-3.522.602 0 1.122-.417 1.24-1.013l1.403-6.98c8.04-.1 11.493-1.405 13.342-2.773 1.888 1.42 5.294 2.673 13.33 2.774l1.384 6.98c.117.582.637 1.013 1.24 1.013 1.842 0 2.328 2.306 2.328 3.523 0 1.228-.486 3.533-2.327 3.533-.698 0-1.265.57-1.265 1.267 0 5.066-3.443 9.145-7.178 11.716-.026.012-.05.04-.075.05-2.756 1.875-5.658 2.94-7.452 2.94-1.763 0-4.6-1.026-7.316-2.85-.098-.09-.205-.166-.327-.217-3.69-2.57-7.062-6.623-7.062-11.64zm-2.1-31.286l1.086-1.81 2.638 2.633c.914.924 2.176 1.394 3.47 1.304 1.29-.1 2.474-.747 3.253-1.773l1.57-2.1 1.222 1.633c.837 1.115 2.17 1.785 3.568 1.785 1.397 0 2.732-.67 3.568-1.785L42.79 3.37l1.57 2.1c.776 1.027 1.962 1.674 3.25 1.774 1.285.09 2.558-.38 3.473-1.305l2.636-2.635 1.085 1.81c1.876 3.13 2.74 6.703 2.504 10.362-.35 5.32-.71 8.715-.975 10.78-.393-.254-.817-.47-1.3-.583L53.63 18.58c-.118-.582-.64-1.013-1.243-1.013-9.546 0-12.26-1.607-13.472-2.823-.475-.483-1.317-.483-1.792 0-1.212 1.216-3.927 2.823-13.488 2.823-.603 0-1.123.418-1.242 1.014l-1.426 7.094c-.46.114-.885.304-1.282.557-.276-2.038-.644-5.433-.993-10.753-.238-3.66.628-7.232 2.503-10.36zm.637 46.5l4.882 10.97c1.8 3.965 4.582 5.814 8.753 5.814h3.8c4.623 0 8.37-2.18 10.024-5.814l4.887-10.97c1.938.278 3.76.545 5.44.862l3.49 20.99h-50.21l3.496-20.98c1.68-.315 3.5-.594 5.44-.87zm39.23-1.456c-.04-.014-.082-.025-.125-.025-2.497-.496-5.144-.863-7.833-1.23-1.268-.165-2.564-.342-3.864-.544 3.09-2.723 5.593-6.422 5.952-10.855 2.394-.67 3.64-3.294 3.64-5.902 0-.81-.14-1.634-.385-2.395.192-.988.805-4.636 1.39-13.566.27-4.166-.718-8.257-2.86-11.83L55.057.606c-.2-.33-.545-.556-.93-.596-.386-.05-.776.077-1.05.356L49.29 4.153c-.396.393-.95.597-1.5.558-.558-.037-1.07-.316-1.407-.758L43.805.505C43.565.19 43.19 0 42.792 0c-.4 0-.774.19-1.014.505L39.54 3.482c-.722.977-2.356.977-3.08 0L34.222.505C33.982.19 33.607 0 33.208 0c-.4 0-.774.19-1.013.505l-2.58 3.433c-.336.456-.85.735-1.406.773-.57.04-1.106-.164-1.5-.557L22.923.366c-.275-.28-.662-.405-1.05-.355-.386.04-.73.267-.93.597l-1.92 3.204c-2.143 3.575-3.13 7.666-2.86 11.832.562 8.602 1.187 12.312 1.414 13.465-.258.772-.41 1.62-.41 2.496 0 2.608 1.246 5.232 3.64 5.902.36 4.447 2.865 8.132 5.958 10.868-1.21.177-2.417.342-3.604.506-2.726.367-5.468.748-8.07 1.266-.05 0-.095.014-.14.025C6.74 51.83 0 55.01 0 64.335V76h76V64.334c0-9.45-6.563-12.53-14.938-14.174z"/>
    </g>
</svg>
